X:1
T:The Birthday of Our King
T:The Birthday of Our King
T:A. F. Myers
T:Mrs. Hattie M. Bennett, 19th Century
T:Public Domain Courtesy of the Cyber Hymnal™
T:Public Domain Courtesy of the Cyber Hymnal™
C:A. F. Myers
Z:Public Domain
Z:Courtesy of the Cyber Hymnal™
%%score ( 1 2 ) ( 3 4 )
L:1/8
Q:1/4=100
M:4/4
K:Eb
V:1 treble 
V:2 treble 
V:3 bass 
V:4 bass 
V:1
 E[EF] | [EG][EG][EG][EG] [EB][EB][EB][EB] | [EA][EA] [EA]>[EA] [Ac]2 [Ac]>[Ac] | %3
w: 1.~Un- to|God be high- est glo- ry, And on|earth good will to men, Since the|
w: 2.~Now with|hap- py hearts and voic- es, We to|Christ our trib- ute bring, On this|
w: 3.~Let all|na- tions join the cho- rus Of the|ev- er- last- ing song, That the|
 [GB]2 [EG]2 E2 [EG]2 | [DF]6 [DB]>[FA] | [EG][EG][EG][EG] [EB][EB] [EB]>[EB] | %6
w: Prince of Peace is|born; Tell a-|far the won- drous sto- ry, Sing Re-|
w: bless- èd Christ- mas|day; In His|light the world re- joic- es, While the|
w: heav’n- ly min- strels|sing; God’s e-|ter- nal love is o’er us, Shout for|
 [EA][EA][EA][EA] !fermata![Ac]2 [Ac]>[Ac] | [EB]2 [FA]2 [EG]2 [DF]2 | E6 || %9
w: demp- tion’s song a- gain, On this|fes- tal Christ- mas|morn.|
w: bells of Heav- en ring, And the|sha- dows roll a-|way.|
w: joy, O earth- ly throng, ’Tis the|birth- day of our|king.|
"^Refrain" E"^Soprano"G | GF"^Alto"FF FF"^Soprano"FA | AG"^Alto"GG GG [EG]>[EG] | %12
w: |||
w: Mer- ry|Christ- mas, mer- ry Christ- mas, Mer- ry|Christ- mas, mer- ry Christ- mas. Hal- le-|
w: |||
 [DF][DF][DB][DB] [E=A][EA] [Fd]>[Ec] | [DB]6 [GB][GB] | [Ge][Ge] [Ge]>[Ge] [Ad]2 [Ad][Ad] | %15
w: |||
w: lu- jah! Joy- ful prais- es now we|bring. ’Tis the|birth- day of our king, And with|
w: |||
 [Ac][Ac] [Ac]>[Ac] [GB]2 [EG][EG] | [CF]2 [FA]2 [EG]2 [DF]2 | E6 |] %18
w: |||
w: an- gels we will sing Glo- ry|to His name, A-|men.|
w: |||
V:2
 E x | x8 | x8 | x4 E2 x2 | x8 | x8 | x8 | x8 | E6 || x2 | x8 | x8 | x8 | x8 | x8 | x8 | x8 | E6 |] %18
V:3
 [E,G,][E,A,] | [E,B,][E,B,][E,B,][E,B,] [E,G,][E,G,][E,G,][E,G,] | %2
 [A,,C][A,,C] [A,,C]>[A,,C] [A,,C]2 [A,E]>[A,E] | [E,E]2 [E,B,]2 [E,G,]2 [E,B,]2 | %4
 [B,,B,]6 [B,,B,]>[B,,B,] | [E,B,][E,B,][E,B,][E,B,] [E,G,][E,G,] [E,G,]>[E,G,] | %6
 [A,,C][A,,C][A,,C][A,,C] [A,,E]2 [A,,E]>[A,,E] | [G,,B,]2 [A,,C]2 [B,,B,]2 [B,,A,]2 | [E,G,]6 || %9
"^Tenor" G,B, | B,A,"^Bass"A,A, A,A,"^Tenor"A,C | CB,"^Bass"B,B, B,B, [E,B,]>[E,B,] | %12
 [F,B,][F,B,][F,B,][F,B,] [F,C][F,C] [F,B,]>[F,=A,] | [B,,B,]6 [E,B,][E,B,] | %14
 [E,B,][E,B,] [E,B,]>[E,B,] [F,B,]2 [F,B,][F,B,] | A,[A,C] [A,E]>[A,E] [E,E]2 [E,B,][E,B,] | %16
 [A,,C]2 [A,,C]2 [B,,B,]2 [B,,A,]2 | [E,G,]6 |] %18
V:4
 x2 | x8 | x8 | x8 | x8 | x8 | x8 | x8 | x6 || x2 | x8 | x8 | x8 | x8 | x8 | A, x7 | x8 | x6 |] %18

